X: 807
M: 6/4
L: 1/8
K: D
(F2D2)A2 d4AG | (F2D2)A2 d4e2 | (f3e)f2 (f3e)f2 | (f3e)d2 e4f2 |\
g3ag2 b3ag2 | f3ed2 a4A2 | A2(FG)A2 A2(FG)A2 | A2(FG)A2 D4 |]
a2 |\
a2(fg)a2 b2(ga)b2 | a2(fg)a2 g4f2 | e2d2c2 B2c2d2 | e2f2g2 B4A2 |\

